!!!ONB: MCCC : IJB0064_05 : Extracted Monophonic Melody
!!!COM: Bach, Johann Sebastian
!!!OPR: Cello Suite No.2
!!!OMV: 5
!!!SCT: BWV 1008
!!!ODT: 1717///
**kern
*thru
*staff1
*IP1
*clefF4
*k[b-]
*d:
*M3/4
*>A
=1-
2A
4B-
=2
8B-
8A
8B-
8G
4A
=3
4D
4G
8F
8E
=4
8F
8E
8D
8C#
8BB
8AA
=5
2A
4B-
=6
8B-
8A
8B-
8G
4c
=7
4A
4d
4e
=8
2.c#
=9
*>A
2A
4B-
=2
8B-
8A
8B-
8G
4A
=3
4D
4G
8F
8E
=4
8F
8E
8D
8C#
8BB
8AA
=5
2A
4B-
=6
8B-
8A
8B-
8G
4c
=7
4A
4d
4e
=8
2.c#
=9
*>B
2c#
8d
16e
16f
=10
8e
8d
8c#
8e
8A
8G
=11
4A
4d
4c#
=12
8g
8f
8e
8f
8d
8c
=13
2B-
4c
=14
8A
8G
8A
8F
4d
=15
4c
8B-
8A
8G
8A
=16
8F
8E
8F
8A
8G
8B-
=17
2A
4B-
=18
8c
8B-
8c
8A
4F#
=19
4d
4c
8B-
8A
=20
8c
8B-
8A
8B-
8G
8B-
=21
4d
4c#
4d
=22
8G
8F
8G
8E
4F
=23
8GG
8G
4.E
8D
=24
2.D
=25
*>B
2c#
8d
16e
16f
=10
8e
8d
8c#
8e
8A
8G
=11
4A
4d
4c#
=12
8g
8f
8e
8f
8d
8c
=13
2B-
4c
=14
8A
8G
8A
8F
4d
=15
4c
8B-
8A
8G
8A
=16
8F
8E
8F
8A
8G
8B-
=17
2A
4B-
=18
8c
8B-
8c
8A
4F#
=19
4d
4c
8B-
8A
=20
8c
8B-
8A
8B-
8G
8B-
=21
4d
4c#
4d
=22
8G
8F
8G
8E
4F
=23
8GG
8G
4.E
8D
=24
2.D
==
*-
